X:3
T:Ronde enfantine (Monferina)  C 5-
%%MIDI program 21
R:monferine
M:6/8
L:1/8
K:C %%MIDI gchordon
E| "C"E2G GFE | ("G7"D3D2)E | F2G A2F | ("C"E3E2)E | E2G GFE | "Dm/F"D3A3 | "G7"G2A G2F | "C"E3E2z |] 
% mf00933

